!!!COM: Palestrina, Giovanni Perluigi da
!!!OPR: Missa Confitebor tibi
!!!OMD: Credo
!!!OTL: First Section
**kern	**kern	**kern	**kern	**kern	**kern	**kern	**kern
*Ibass	*Itenor	*Icalto	*Icant	*Ibass	*Itenor	*Icalto	*Icant
!Bassus	!Tenor	!Altus	!Cantus	!Bassus	!Tenor	!Altus	!Cantus
*clefF4	*clefGv2	*clefG2	*clefG2	*clefF4	*clefGv2	*clefG2	*clefG2
*k[b-]	*k[b-]	*k[b-]	*k[b-]	*k[b-]	*k[b-]	*k[b-]	*k[b-]
*G:dor	*G:dor	*G:dor	*G:dor	*G:dor	*G:dor	*G:dor	*G:dor
*M4/2	*M4/2	*M4/2	*M4/2	*M4/2	*M4/2	*M4/2	*M4/2
=1	=1	=1	=1	=1	=1	=1	=1
0r	0r	0r	0r	1r	1r	0r	0g
.	.	.	.	[1G	[1d	.	.
=2	=2	=2	=2	=2	=2	=2	=2
0r	0r	0r	0r	1G]	1d]	0g	1b-
.	.	.	.	1c	1e	.	1cc
=3	=3	=3	=3	=3	=3	=3	=3
0r	0r	0r	0r	1B-	1f	1b-	2.dd
.	.	.	.	.	.	.	4cc
.	.	.	.	4G	2g	1b-	4b-
.	.	.	.	4A	.	.	4cc
.	.	.	.	4B-	2g	.	4dd
.	.	.	.	4c	.	.	4ee
=4	=4	=4	=4	=4	=4	=4	=4
0r	0r	0r	0r	1.d	4f	4a	1.ff
.	.	.	.	.	4e	4g	.
.	.	.	.	.	4d	4f	.
.	.	.	.	.	4e	4g	.
.	.	.	.	.	4f	4a	.
.	.	.	.	.	4g	4b-	.
.	.	.	.	2A	[2a	2cc	2ee
=5	=5	=5	=5	=5	=5	=5	=5
0r	1r	0r	0r	2B-	4a]	1b-	0dd
.	.	.	.	.	4g	.	.
.	.	.	.	2G	1g	.	.
.	2r	.	.	1d	.	2a	.
.	2a	.	.	.	4f	[2d	.
.	.	.	.	.	4e	.	.
=6	=6	=6	=6	=6	=6	=6	=6
1d	2a	1r	2r	2D	4f	4d]	1.dd
.	.	.	.	.	4e	4e	.
.	2a	.	2ff	2D	4d	4f	.
.	.	.	.	.	4e	4g	.
2d	1a	2r	2ff	[1D	4f	2a	.
.	.	.	.	.	4g	.	.
2d	.	2a	2ff	.	[2a	[2f	4cc
.	.	.	.	.	.	.	4b-
=7	=7	=7	=7	=7	=7	=7	=7
1d	2f	2a	1ff	1D]	2a]	4f]	0a
.	.	.	.	.	.	4g	.
.	2d	2a	.	.	2.A	4a	.
.	.	.	.	.	.	4b-	.
2c	1e	1a	2ee	1A	.	1cc	.
.	.	.	.	.	4B-	.	.
2A	.	.	2cc	.	2c	.	.
=8	=8	=8	=8	=8	=8	=8	=8
1B-	4d	2f	1dd	0r	0r	0r	0r
.	4e	.	.	.	.	.	.
.	4f	2d	.	.	.	.	.
.	4g	.	.	.	.	.	.
4A	2a	2e	4cc	.	.	.	.
4G	.	.	4b-	.	.	.	.
4F	2A	[2f	4a	.	.	.	.
4E	.	.	4g	.	.	.	.
=9	=9	=9	=9	=9	=9	=9	=9
2D	2.d	4f]	2f	0r	1r	1r	0r
.	.	4e	.	.	.	.	.
2B-	.	1d	2g	.	.	.	.
.	4e	.	.	.	.	.	.
1A	2f	.	[1a	.	2r	2r	.
.	2e	2c#	.	.	2e	2a	.
=10	=10	=10	=10	=10	=10	=10	=10
0D	4d	0d	1a]	2r	2f	2a	2r
.	4e	.	.	.	.	.	.
.	4f	.	.	2d	4d	2.a	2ff
.	4g	.	.	.	4e	.	.
.	1a	.	1f	2d	4f	.	2ff
.	.	.	.	.	4g	4g	.
.	.	.	.	[2d	2a	2f	[2ff
=11	=11	=11	=11	=11	=11	=11	=11
0r	0r	0r	1r	4d]	2f	2a	4ff]
.	.	.	.	4c	.	.	4ee
.	.	.	.	2B-	2g	2b-	2dd
.	.	.	2r	2c	2e	1a	2cc
.	.	.	2dd	2d	2f#	.	2a
=12	=12	=12	=12	=12	=12	=12	=12
2r	2r	2r	2dd	0G	0g	2.g	2.b-
2G	2d	2b-	2.dd	.	.	.	.
.	.	.	.	.	.	8f	4cc
.	.	.	.	.	.	8e	.
2G	2d	2b-	.	.	.	1d	1dd
.	.	.	4cc	.	.	.	.
[2G	[2d	[2b-	2b-	.	.	.	.
=13	=13	=13	=13	=13	=13	=13	=13
4G]	4d]	4b-]	2dd	0r	1r	0r	1r
4F	4d	4a	.	.	.	.	.
2E	2e	2g	1cc	.	.	.	.
2F	2d	2a	.	.	2r	.	2r
2G	2d	2g	2b	.	2g	.	2gg
=14	=14	=14	=14	=14	=14	=14	=14
0C	0c	0g	0cc	2r	2e	2r	2gg
.	.	.	.	2c	4c	2g	1gg
.	.	.	.	.	4d	.	.
.	.	.	.	2c	4e	2cc	.
.	.	.	.	.	4f	.	.
.	.	.	.	[2c	4g	[2cc	2ee
.	.	.	.	.	4f	.	.
=15	=15	=15	=15	=15	=15	=15	=15
0r	1r	0r	1r	2c]	2e	2cc]	2gg
.	.	.	.	2A	2a	2cc	1ff
.	2r	.	2r	2B-	2g	2b-	.
.	2c	.	2cc	2c	2g	2g	2ee
=16	=16	=16	=16	=16	=16	=16	=16
2r	2A	2r	2cc	0F	0f	0a	0ff
2F	4F	2a	1cc	.	.	.	.
.	4G	.	.	.	.	.	.
2F	4A	2f	.	.	.	.	.
.	4B-	.	.	.	.	.	.
[2F	4c	[2f	2a	.	.	.	.
.	4B-	.	.	.	.	.	.
=17	=17	=17	=17	=17	=17	=17	=17
2F]	2A	2f]	2cc	0r	0r	0r	0r
2D	2d	2f	1b-	.	.	.	.
2E	2c	2g	.	.	.	.	.
2F	2c	2f	2a	.	.	.	.
=18	=18	=18	=18	=18	=18	=18	=18
0BB-	2.d	0f	0b-	0r	2.B-	0r	1r
.	4c	.	.	.	4B-	.	.
.	1B-	.	.	.	2d	.	2.f
.	.	.	.	.	2d	.	.
.	.	.	.	.	.	.	4f
=19	=19	=19	=19	=19	=19	=19	=19
0r	0r	0r	0r	2.F	2.f	1r	2a
.	.	.	.	.	.	.	2a
.	.	.	.	4F	4e	.	.
.	.	.	.	2A	[1e	2.c	2.cc
.	.	.	.	2A	.	.	.
.	.	.	.	.	.	4c	4cc
=20	=20	=20	=20	=20	=20	=20	=20
0r	0r	0r	0r	2.c	2e]	2e	2g
.	.	.	.	.	2c	2e	1cc
.	.	.	.	4c	.	.	.
.	.	.	.	1G	2.d	2.g	.
.	.	.	.	.	.	.	2b-
.	.	.	.	.	4e	4g	.
=21	=21	=21	=21	=21	=21	=21	=21
0r	0r	0r	0r	2A	1f	2c	2a
.	.	.	.	2B-	.	1d	4g
.	.	.	.	.	.	.	4f
.	.	.	.	1G	4g	.	1b-
.	.	.	.	.	4f	.	.
.	.	.	.	.	4e	[2e	.
.	.	.	.	.	4d	.	.
=22	=22	=22	=22	=22	=22	=22	=22
0r	0r	0r	0r	0A	2c#	4e]	[0a
.	.	.	.	.	.	8d	.
.	.	.	.	.	.	8e	.
.	.	.	.	.	1d	2f	.
.	.	.	.	.	.	1e	.
.	.	.	.	.	2c#	.	.
=23	=23	=23	=23	=23	=23	=23	=23
2r	2r	2r	2r	0d	2.d	2.f	1a]
2.D	2.d	2.f	2.a	.	.	.	.
.	.	.	.	.	4e	4g	.
.	.	.	.	.	2f	2a	1r
4D	4d	4f	4a	.	.	.	.
2G	2d	2g	2b-	.	2B-	2d	.
=24	=24	=24	=24	=24	=24	=24	=24
1F	1f	1a	1cc	2r	2r	2r	2r
.	.	.	.	2.A	2.F	2.f	2.a
1D	1f	1a	1dd	.	.	.	.
.	.	.	.	4A	4F	4f	4a
.	.	.	.	2d	2f	2f	2a
=25	=25	=25	=25	=25	=25	=25	=25
1r	1r	1r	1r	1c	1e	1g	1cc
2r	2r	2r	2r	1A	1e	1a	1cc
[2A	[2e	[2a	[2cc	.	.	.	.
=26	=26	=26	=26	=26	=26	=26	=26
4A]	4e]	4a]	4cc]	0r	0r	0r	0r
4A	4e	4a	4cc	.	.	.	.
2d	2f	2a	2dd	.	.	.	.
2c	2g	2cc	2ee	.	.	.	.
2c	2g	2cc	2ee	.	.	.	.
=27	=27	=27	=27	=27	=27	=27	=27
2A	1a	2cc	2ee	0r	0r	0r	0r
2F	.	2cc	2ff	.	.	.	.
2B-	2d	2b-	2ff	.	.	.	.
2c	[2g	2g	2ee	.	.	.	.
=28	=28	=28	=28	=28	=28	=28	=28
1d	2g]	2b-	0dd	2r	1r	0r	2r
.	2f#	4a	.	1d	.	.	1a
.	.	4g	.	.	.	.	.
1D	1f#	1a	.	.	2r	.	.
.	.	.	.	2d	[2d	.	2a
=29	=29	=29	=29	=29	=29	=29	=29
0r	0r	0r	0r	2G	2d]	2.g	2b
.	.	.	.	2G	2d	.	2b
.	.	.	.	.	.	4g	.
.	.	.	.	1c	2e	2g	1cc
.	.	.	.	.	2e	2a	.
=30	=30	=30	=30	=30	=30	=30	=30
0r	0r	0r	0r	2B-	2f	2b-	2dd
.	.	.	.	1B-	2g	2b-	2.dd
.	.	.	.	.	2f	2b-	.
.	.	.	.	.	.	.	4dd
.	.	.	.	2B-	2d	2f	2dd
=31	=31	=31	=31	=31	=31	=31	=31
0r	0r	0r	0r	2.E-	2.e-	2.g	2cc
.	.	.	.	.	.	.	1b-
.	.	.	.	4E-	4e-	4g	.
.	.	.	.	1F	2d	1f	.
.	.	.	.	.	[2c	.	[2a
=32	=32	=32	=32	=32	=32	=32	=32
0r	0r	0r	0r	1G	4c]	1.d	4a]
.	.	.	.	.	4B-	.	4g
.	.	.	.	.	4B-	.	1g
.	.	.	.	.	8A	.	.
.	.	.	.	.	8G	.	.
.	.	.	.	1D	2A	.	.
.	.	.	.	.	2A	2d	2f#
*-	*-	*-	*-	*-	*-	*-	*-
!!!CDT: 1525/^1526/-1594/2/2
!!!OCY: Italia
!!!AGN: Mass (Parody)
!!!AST: renaissance, vocal
!!!ASW: Motet 1572 (Palestrina)
!!!PWK: Masses, Book 8vce
!!!RNB: Cadence finals: D,Bb
!!!YOR: Le Opere Complete, v. 30, p. 163
!!!YOO: Rome, Italy: Fratelli Scalera
!!!END: 1992//
!!!EED: John Miller
!!!YEC: Copyright 2000, John Miller
!!!YEN: United States of America
!!!YEM: Rights to all derivative electronic formats reserved.
!!!YEM: Refer to licensing agreement for further details.
!!!YEM: This file must be accompanied by the licensing agreement.
!!!YEM: A copy of the licensing agreement may be found at http://www.music-cog.ohio-state.edu/HumdrumDatabases/Palestrina/license.txt
!!!EMD: converted to Humdrum by Bret Aarden
